X:1
T:Signor, se mi perdoni
T:Giovanni Animuccia
T:Source : Secondo libro delle Laude spirituali a tre et a quattro voci---Roma---A.Gardano---1583. Editor : André Vierendeels (28/11/17). Notes : Original clefs : G2, C1, C3 Editorial accidentals above the staff Music compiled by Francisco Soto de Langa
T:Signor, se mi perdoni
T:©
T:©
C:Giovanni Animuccia
Z:©
%%score [ 1 2 3 ]
L:1/8
Q:1/4=120
M:4/4
K:C
V:1 treble nm="Soprano 1" snm="S 1"
V:2 treble nm="Soprano 2" snm="S 2"
V:3 treble-8 nm="Tenor" snm="T"
V:1
"^1)" d4 d4- | d2 d2 c2 B2 | A4 A2 c2 | B3 B B2 c2 | A4 G4 :: z4 A4 | A6 A2 | B2 B2 c4 | %8
w: Si- gnor|_ se mi per-|do- ni, il|mio gra- ve pec-|ca- to,|chi-|no sem-|pr'et car- po-|
w: Fie- ri|_ lac- ci di|mor- te, pe-|ri- co- li d'in-|fer- no,|mi|strin- go-|no si for-|
 c2 c2 c2 d2 | B2 A2 B4 | A4 z2 e2 | d6 f2 | e2 e2 d4 | c4 z2 d2 | d3 d d2 d2 | d6 B2 | c2 d2 e4 | %17
w: ni, vo gir per|o- gni la-|to, vo|por la|boc- ca'in ter-|ra, se|pur tro- vas- si|pa- ce'in|tan- ta guer-|
w: te, che'io su- do'à|mez- zo'l ver-|no, chi|fia che|me ne scam-|pi? For-|na- ce sem- pi-|ter- na|co- me'a- vam-|
 e2 c4 B2 | A2 G2 A4 | G8 :| %20
w: ra, pa- ce'in|tan- ta guer-|ra.|
w: pa, co- me'a-|vam- * *|pi.|
V:2
"^2)""^1)" G4 _B4- | B2 A2 A2 G2 | ^F4 F2 A2 | G3 G G2 G2- | G2 ^F2 G4 :: z4 ^F4 | ^F6 F2 | %7
w: Si- gnor|_ se mi per-|do- ni, il|mio gra- ve pec-|* ca- to,|chi-|no sem-|
w: Che di-|* ci'al- ma, che|fa- i? Da|si- gnor si so-|* a- ve,|co-|me puo-|
 G2 G2 E4 | F2 A2 A2 ^F2 | ^G2 A4 G2 | A4 z2 c2 | B6 d2 | B2 c4 B2 | c4 z2 B2 | B3 B B2 B2 | %15
w: pr'et car- po-|ni, vo gir per|o- gni la|to, vo|por la|boc- ca'in ter-|ra, se|pur tro- vas- si|
w: te'u- scir ma-|i, pe- na co-|tan- to gra-|ve? ma|pen- sa|che ven- det-|ta, gran-|de'o gran pre- mio|
 B6 G2 | A2 B2 c4 | c2 A4 G2 | ^F2 G4 F2 | G8 :| %20
w: pa- ce'in|tan- ta guer-|ra, pa- ce'in|tan- ta guer-|ra.|
w: da gran|Re s'as- pet-|ta, da gran|Re s'as- pet-|ta.|
V:3
"^3)""^1)""^4)" G4 g4- | g2 d2 f2 g2 | d4 d2 A2 | e3 e e2 c2 | d4 G4 :: z4 d4 | d6 d2 | G2 G2 A4 | %8
w: Si- gnor|_ se mi per-|do- ni, il|mio gra- ve pec-|ca- to,|chi-|no sem-|pr'et car- po-|
w: Dun- que|_ pur giu- sto|se- i, et|ve- der con- to|vo- i:|o|mal di|spe- si mie-|
 F2 f2 f2 d2 | e2 f2 e4 | A4 z2 c2 | g6 d2 | e2 c2 g4 | c4 z2 g2 | g3 g g2 g2 | g6 e2 | f2 g2 c4 | %17
w: ni, vo gir per|o- gni la-|to, vo|por la|boc- ca'in ter-|ra, se|pur tro- vas- si|pa- ce'in|tan- ta guer-|
w: i, o gran giu-|di- cii tuo-|i, Gie-|su por-|gi- ni'a- i-|ta, pri-|ma ch'io par- ta'et|non ha-|ro piu vi-|
 c2 f4 g2 | d2 e2 d4 | G8 :| %20
w: ra, pa- ce'in|tan- ta guer-|ra.|
w: ta, non ha-|ro piu vi-|ta.|

